X: 1
T: Johnny In The Fog
M: 4/4
L: 1/8
R: reel
K: Gmix
d2cf dG (3ABc|~d3B c2AG|Add^c d2fc|(3ABc fd cFAc:|
|:BG~G2 DGAc|BG~G2 cFAc|BG~G2 DGBG|1 (3ABc fd cFAc:|2 (3ABc fd cde^f||
|:g2bg agbg|~g2bg d3e|1 f2af gfaf|~f2af defd:|2 ~f2af gfde|~f3d cFAc||
